images/development-services/number-3.svg

<svg width="215" height="299" viewBox="0 0 215 299" fill="none" xmlns="http://www.w3.org/2000/svg">
<path d="M107.256 298.977C86.8011 298.977 68.6193 295.473 52.7102 288.466C36.8958 281.458 24.3958 271.705 15.2102 259.205C6.02462 246.705 1.14773 232.263 0.579547 215.881H53.9886C54.4621 223.741 57.0663 230.606 61.8011 236.477C66.536 242.254 72.8333 246.752 80.6932 249.972C88.553 253.191 97.3599 254.801 107.114 254.801C117.53 254.801 126.763 253.002 134.812 249.403C142.862 245.71 149.159 240.597 153.705 234.062C158.25 227.528 160.475 220 160.381 211.477C160.475 202.67 158.203 194.905 153.562 188.182C148.922 181.458 142.199 176.203 133.392 172.415C124.68 168.627 114.169 166.733 101.858 166.733H76.1477V126.108H101.858C111.991 126.108 120.845 124.356 128.42 120.852C136.091 117.348 142.104 112.424 146.46 106.08C150.816 99.6401 152.947 92.2064 152.852 83.7784C152.947 75.5398 151.1 68.3902 147.312 62.3295C143.619 56.1742 138.364 51.392 131.545 47.983C124.822 44.5739 116.915 42.8693 107.824 42.8693C98.9224 42.8693 90.6837 44.4792 83.108 47.6989C75.5322 50.9186 69.4242 55.5114 64.7841 61.4773C60.1439 67.3485 57.6818 74.3561 57.3977 82.5H6.6875C7.06629 66.2121 11.7538 51.9129 20.75 39.6023C29.8409 27.197 41.9621 17.5379 57.1136 10.625C72.2652 3.61742 89.2633 0.113626 108.108 0.113626C127.521 0.113626 144.377 3.75946 158.676 11.0511C173.07 18.2481 184.197 27.9545 192.057 40.1705C199.917 52.3864 203.847 65.8807 203.847 80.6534C203.941 97.036 199.112 110.767 189.358 121.847C179.699 132.926 167.009 140.17 151.29 143.58V145.852C171.744 148.693 187.417 156.269 198.307 168.58C209.292 180.795 214.737 195.994 214.642 214.176C214.642 230.464 210.002 245.047 200.722 257.926C191.536 270.71 178.847 280.748 162.653 288.04C146.555 295.331 128.089 298.977 107.256 298.977Z" fill="#333333" fill-opacity="0.05"/>
</svg>

<svg width="215" height="299" fill="none" xmlns="http://www.w3.org/2000/svg"><path d="M107.256 298.977c-20.455 0-38.637-3.504-54.546-10.511-15.814-7.008-28.314-16.761-37.5-29.261-9.185-12.5-14.062-26.942-14.63-43.324h53.409c.473 7.86 3.077 14.725 7.812 20.596 4.735 5.777 11.032 10.275 18.892 13.495 7.86 3.219 16.667 4.829 26.421 4.829 10.416 0 19.649-1.799 27.698-5.398 8.05-3.693 14.347-8.806 18.893-15.341 4.545-6.534 6.77-14.062 6.676-22.585.094-8.807-2.178-16.572-6.819-23.295-4.64-6.724-11.363-11.979-20.17-15.767-8.712-3.788-19.223-5.682-31.534-5.682h-25.71v-40.625h25.71c10.133 0 18.987-1.752 26.562-5.256 7.671-3.504 13.684-8.428 18.04-14.772 4.356-6.44 6.487-13.874 6.392-22.302.095-8.238-1.752-15.388-5.54-21.449-3.693-6.155-8.948-10.937-15.767-14.346-6.723-3.41-14.63-5.114-23.721-5.114-8.902 0-17.14 1.61-24.716 4.83-7.576 3.22-13.684 7.812-18.324 13.778-4.64 5.872-7.102 12.88-7.386 21.023H6.688c.378-16.288 5.066-30.587 14.062-42.898 9.09-12.405 21.212-22.064 36.364-28.977C72.265 3.617 89.264.114 108.108.114c19.413 0 36.269 3.645 50.568 10.937 14.394 7.197 25.521 16.903 33.381 29.12 7.86 12.215 11.79 25.71 11.79 40.482.094 16.383-4.735 30.114-14.489 41.194-9.659 11.079-22.349 18.323-38.068 21.733v2.272c20.454 2.841 36.127 10.417 47.017 22.728 10.985 12.215 16.43 27.414 16.335 45.596 0 16.288-4.64 30.871-13.92 43.75-9.186 12.784-21.875 22.822-38.069 30.114-16.098 7.291-34.564 10.937-55.397 10.937Z" fill="#333" fill-opacity=".05"/></svg>
